X:7488
T:the Wounded Hussar
O:england
C:Carolan
N:orig. Captain Keane
M:3/4
A:North-West
R:Slow air
K:GDor
~GF|\
D2G2 A2| B4AG| ABcBAG| H[F2C2] G2A2| \
B2d2 d2| Hd>cBAGF| D2G2A2| G4:|
GA|\
B2d2 d2| d4 cB| A2c2 c2| c4 =Bc|\
d2g2^f2| g3a b2| d2g2^f2| g4 ga|
b3a g2| (fd3) cB| AcfA GF/E/| H[C2F2] G2A2|\
Bcdefe| Hd>cBAGF| D2G2A2| G4|]


